img/icons/svg/icon-whatsapp.svg

<svg width="16" height="16" viewBox="0 0 16 16" fill="none" xmlns="http://www.w3.org/2000/svg"><path d="M8.002 0h-.004C3.587 0 0 3.588 0 8a7.94 7.94 0 001.523 4.689l-.997 2.972 3.075-.983A7.93 7.93 0 008.002 16C12.413 16 16 12.411 16 8s-3.587-8-7.998-8zm4.655 11.297c-.193.545-.959.997-1.57 1.129-.418.089-.964.16-2.802-.602-2.351-.974-3.865-3.363-3.983-3.518-.113-.155-.95-1.265-.95-2.413s.583-1.707.818-1.947c.193-.197.512-.287.818-.287.099 0 .188.005.268.009.235.01.353.024.508.395.193.465.663 1.613.719 1.731.057.118.114.278.034.433-.075.16-.141.231-.259.367-.118.136-.23.24-.348.386-.108.127-.23.263-.094.498.136.23.606.997 1.298 1.613.893.795 1.617 1.049 1.876 1.157.193.08.423.061.564-.089.179-.193.4-.513.625-.828.16-.226.362-.254.574-.174.216.075 1.359.64 1.594.757.235.118.39.174.447.273.056.099.056.564-.137 1.11z" fill="#fff"/></svg>

<svg width="16" height="16" viewBox="0 0 16 16" fill="none" xmlns="http://www.w3.org/2000/svg">
<path d="M8.002 0H7.998C3.587 0 0 3.588 0 8C0 9.75 0.564 11.372 1.523 12.689L0.526 15.661L3.601 14.678C4.866 15.516 6.375 16 8.002 16C12.413 16 16 12.411 16 8C16 3.589 12.413 0 8.002 0ZM12.657 11.297C12.464 11.842 11.698 12.294 11.087 12.426C10.669 12.515 10.123 12.586 8.285 11.824C5.934 10.85 4.42 8.461 4.302 8.306C4.189 8.151 3.352 7.041 3.352 5.893C3.352 4.745 3.935 4.186 4.17 3.946C4.363 3.749 4.682 3.659 4.988 3.659C5.087 3.659 5.176 3.664 5.256 3.668C5.491 3.678 5.609 3.692 5.764 4.063C5.957 4.528 6.427 5.676 6.483 5.794C6.54 5.912 6.597 6.072 6.517 6.227C6.442 6.387 6.376 6.458 6.258 6.594C6.14 6.73 6.028 6.834 5.91 6.98C5.802 7.107 5.68 7.243 5.816 7.478C5.952 7.708 6.422 8.475 7.114 9.091C8.007 9.886 8.731 10.14 8.99 10.248C9.183 10.328 9.413 10.309 9.554 10.159C9.733 9.966 9.954 9.646 10.179 9.331C10.339 9.105 10.541 9.077 10.753 9.157C10.969 9.232 12.112 9.797 12.347 9.914C12.582 10.032 12.737 10.088 12.794 10.187C12.85 10.286 12.85 10.751 12.657 11.297Z" fill="white"/>
</svg>
